X: 1
T: Rain on the Window
R: waltz
M: 3/4
L: 1/8
K: Dm
| d cB |: "D"A3 d cB | "Gm"A2 {ABA}G2 cB | "D"Ad d2 cB |1"Gm"A2 {ABA}G2 cB :|2"Gm"A2 {ABA}G2 AB |
||: "Gm"dg g2 gd | "C"c4 Bc | "D"dA Ad cB |1"Gm"A2 {ABA}G2 AB :|2"Gm"A2 {ABA}G2 Bc |
||: "Bb"d3 f dB | "C"c4 Bc | "D"dA Ad cB |1"Gm"A2 {ABA}G2 Bc :|2"Gm"A2 {ABA}G2||

